brandFactory_export/3.Masa/Aeropuerto_Avion_3Masa.svg

<?xml version="1.0" encoding="UTF-8"?>
<svg width="24px" height="24px" viewBox="0 0 24 24" version="1.1" xmlns="http://www.w3.org/2000/svg" xmlns:xlink="http://www.w3.org/1999/xlink">
    <title>3.Masa/Aeropuerto_Avion_3Masa</title>
    <g id="Symbols" stroke="none" stroke-width="1" fill="none" fill-rule="evenodd">
        <g id="3.Masa/Aeropuerto_Avion_3Masa" fill="#5CB615" fill-rule="nonzero">
            <path d="M23.6201681,3.2302521 C23.6571429,2.50084034 23.3613445,1.76134454 22.7596639,1.09579832 C21.5260504,-0.278991597 19.9697479,-0.359663866 18.594958,0.87394958 C18.2588235,1.17647059 15.1630252,4.51092437 14.312605,5.42521008 L3.76470588,3.87563025 C3.57310924,3.85210084 3.38487395,3.9394958 3.27731092,4.10084034 L2.19495798,5.81848739 C2.11764706,5.9394958 2.09747899,6.08403361 2.14117647,6.22184874 C2.18151261,6.35966387 2.2789916,6.47058824 2.40672269,6.53109244 L10.0235294,10.0504202 C8.97478992,11.189916 8.18823529,11.9529412 7.48235294,12.6386555 C6.53445378,13.5596639 5.77478992,14.2957983 4.80336134,15.5327731 L1.37815126,15.2840336 C1.2,15.2672269 1.02521008,15.3546218 0.931092437,15.5058824 L0.0806722689,16.7932773 C-0.0672268908,17.0218487 -0.00672268908,17.3243697 0.221848739,17.4756303 L3.59663866,19.6941176 L5.79495798,23.3848739 C5.92605042,23.6033613 6.20168067,23.6840336 6.4302521,23.5764706 L7.92941176,22.8537815 C8.11092437,22.7663866 8.22184874,22.5747899 8.20504202,22.3731092 L7.91932773,18.6521008 C9.2,17.6504202 9.94285714,16.9042017 10.8705882,15.9697479 C11.7142857,15.1058824 12.5848739,14.2689076 13.4789916,13.4588235 L17.0991597,21.0823529 C17.2168067,21.3277311 17.5092437,21.4319328 17.7546218,21.3142857 L17.7579832,21.3142857 L19.4890756,20.4672269 C19.6840336,20.3731092 19.7915966,20.1613445 19.7579832,19.9495798 L18.087395,9.32436975 C18.9310924,8.5512605 22.2487395,5.52605042 22.5378151,5.26386555 C23.2067227,4.65882353 23.5831933,3.95630252 23.6201681,3.2302521" id="Path"></path>
        </g>
    </g>
</svg>

<svg width="24" height="24" viewBox="0 0 24 24" xmlns="http://www.w3.org/2000/svg"><path d="M23.62 3.23c.037-.73-.259-1.469-.86-2.134C21.526-.28 19.97-.36 18.595.874c-.336.302-3.432 3.637-4.282 4.551L3.765 3.875a.511.511 0 00-.488.226L2.195 5.818a.475.475 0 00-.054.404c.04.138.138.249.266.31l7.617 3.518c-1.05 1.14-1.836 1.903-2.542 2.589-.948.92-1.707 1.657-2.679 2.894l-3.425-.249a.477.477 0 00-.447.222l-.85 1.287a.493.493 0 00.14.683l3.376 2.218 2.198 3.69c.131.22.407.3.635.192l1.5-.722a.49.49 0 00.275-.48l-.286-3.722c1.281-1.002 2.024-1.748 2.952-2.682a59.29 59.29 0 012.608-2.511l3.62 7.623a.49.49 0 00.656.232h.003l1.731-.847a.49.49 0 00.269-.517l-1.67-10.626c.843-.773 4.16-3.798 4.45-4.06.669-.605 1.045-1.308 1.082-2.034" fill="#5CB615" fill-rule="nonzero"/></svg>
